packages/docs/public/logo.svg

<svg clip-rule="evenodd" fill-rule="evenodd" viewBox="0 0 256 256" xmlns="http://www.w3.org/2000/svg" xmlns:xlink="http://www.w3.org/1999/xlink"><linearGradient id="a"><stop offset="0" stop-color="#ff8c42"/><stop offset=".5" stop-color="#f97316"/><stop offset="1" stop-color="#ea580c"/></linearGradient><linearGradient id="b" gradientTransform="matrix(22.923077 75.882353 -75.882353 22.923077 33.076923 105)" gradientUnits="userSpaceOnUse" x1="0" x2="1" xlink:href="#a" y1="0" y2="0"/><linearGradient id="c" gradientTransform="matrix(24.358974 78.882353 -78.882353 24.358974 48.333333 112)" gradientUnits="userSpaceOnUse" x1="0" x2="1" xlink:href="#a" y1="0" y2="0"/><linearGradient id="d" gradientTransform="matrix(21 81.578947 -81.578947 21 69.666667 116)" gradientUnits="userSpaceOnUse" x1="0" x2="1" xlink:href="#a" y1="0" y2="0"/><linearGradient id="e" gradientTransform="matrix(18.666667 81 -81 18.666667 89.333333 118)" gradientUnits="userSpaceOnUse" x1="0" x2="1" xlink:href="#a" y1="0" y2="0"/><linearGradient id="f" gradientTransform="matrix(18.666667 81 -81 18.666667 92 118)" gradientUnits="userSpaceOnUse" x1="0" x2="1" xlink:href="#a" y1="0" y2="0"/><linearGradient id="g" gradientTransform="matrix(21 81.578947 -81.578947 21 109.333333 116)" gradientUnits="userSpaceOnUse" x1="0" x2="1" xlink:href="#a" y1="0" y2="0"/><linearGradient id="h" gradientTransform="matrix(24.358974 78.882353 -78.882353 24.358974 127.307692 112)" gradientUnits="userSpaceOnUse" x1="0" x2="1" xlink:href="#a" y1="0" y2="0"/><linearGradient id="i" gradientTransform="matrix(22.923077 75.882353 -75.882353 22.923077 144 105)" gradientUnits="userSpaceOnUse" x1="0" x2="1" xlink:href="#a" y1="0" y2="0"/><linearGradient id="j" gradientTransform="matrix(110 100 -100 110 45 20)" gradientUnits="userSpaceOnUse" x1="0" x2="1" xlink:href="#a" y1="0" y2="0"/><linearGradient id="k" gradientTransform="matrix(0 10 -10 0 92 197)" gradientUnits="userSpaceOnUse" x1="0" x2="1" y1="0" y2="0"><stop offset="0" stop-color="#1e293b" stop-opacity=".9"/><stop offset="1" stop-color="#0f172a" stop-opacity=".9"/></linearGradient><linearGradient id="l" gradientTransform="matrix(0 6 -6 0 89 193)" gradientUnits="userSpaceOnUse" x1="0" x2="1" y1="0" y2="0"><stop offset="0" stop-color="#1e293b" stop-opacity=".7"/><stop offset="1" stop-color="#0f172a" stop-opacity=".7"/></linearGradient><linearGradient id="m" gradientTransform="matrix(0 5 -5 0 105.5 191.5)" gradientUnits="userSpaceOnUse" x1="0" x2="1" y1="0" y2="0"><stop offset="0" stop-color="#1e293b" stop-opacity=".6"/><stop offset="1" stop-color="#0f172a" stop-opacity=".6"/></linearGradient><linearGradient id="n" gradientTransform="matrix(0 4 -4 0 94 186)" gradientUnits="userSpaceOnUse" x1="0" x2="1" y1="0" y2="0"><stop offset="0" stop-color="#1e293b" stop-opacity=".5"/><stop offset="1" stop-color="#0f172a" stop-opacity=".5"/></linearGradient><linearGradient id="o" gradientTransform="matrix(0 3 -3 0 102.5 184.5)" gradientUnits="userSpaceOnUse" x1="0" x2="1" y1="0" y2="0"><stop offset="0" stop-color="#1e293b" stop-opacity=".4"/><stop offset="1" stop-color="#0f172a" stop-opacity=".4"/></linearGradient><linearGradient id="p" gradientTransform="matrix(0 50 -50 0 45 8)" gradientUnits="userSpaceOnUse" x1="0" x2="1" y1="0" y2="0"><stop offset="0" stop-color="#64748b"/><stop offset="1" stop-color="#475569"/></linearGradient><linearGradient id="q"><stop offset="0" stop-color="#94a3b8"/><stop offset="1" stop-color="#64748b"/></linearGradient><linearGradient id="r" gradientTransform="matrix(30 40 -40 30 28 48)" gradientUnits="userSpaceOnUse" x1="0" x2="1" xlink:href="#q" y1="0" y2="0"/><linearGradient id="s" gradientTransform="matrix(30 40 -40 30 142 48)" gradientUnits="userSpaceOnUse" x1="0" x2="1" xlink:href="#q" y1="0" y2="0"/><g stroke="#c2410c"><path d="m52 105c-8 10-13.667 21.667-17 35s-2.333 25 3 35c4.667 6.667 8 7.667 10 3 1.333-6.667 1.333-14.333 0-23 0-13.333 2.333-25.667 7-37 2-5.333 1-9.667-3-13" fill="url(#b)" fill-rule="nonzero" stroke-width="1.5" transform="matrix(.97393743018 .47221966402 -.47221966402 .97393743018 74.71034594706 -15.61804590274)"/><path d="m65 112c-6.667 12-11.667 24.667-15 38-3.333 16.667-1.667 29.333 5 38 6.667 4.667 11 3.667 13-3 1.333-8.667 1.333-18.667 0-30 0-13.333 1.333-25 4-35 2-4-.333-6.667-7-8" fill="url(#c)" fill-rule="nonzero" stroke-width="1.5" transform="matrix(1.07286371504 .14321619208 -.14321619208 1.07286371504 27.22143649518 -8.63399544702)"/><path d="m80 116c-5.333 16-8.667 30.667-10 44-1.333 14.667 1.333 26.333 8 35 6.667 4.667 10.667 3 12-5 1.333-10 .667-20.667-2-32-1.333-13.333-2.333-24.333-3-33 .667-4.667-1-7.667-5-9" fill="url(#d)" fill-rule="nonzero" stroke-width="1.5" transform="matrix(1.08238 0 0 1.08238 7.07295552516 4.90868466446)"/><path d="m92 118c-2.667 18-3.333 34.667-2 50 1.333 13.333 4.667 23.333 10 30 5.333 2.667 8 0 8-8-1.333-12-3.333-23.667-6-35-2.667-13.333-4.667-23.333-6-30-.667-3.333-2-5.667-4-7" fill="url(#e)" fill-rule="nonzero" stroke-width="1.5" transform="matrix(1.08238 0 0 1.08238 10.57474706776 4.6555408772)"/><path d="m108 118c2.667 18 3.333 34.667 2 50-1.333 13.333-4.667 23.333-10 30-5.333 2.667-8 0-8-8 1.333-12 3.333-23.667 6-35 2.667-13.333 4.667-23.333 6-30 .667-3.333 2-5.667 4-7" fill="url(#f)" fill-rule="nonzero" stroke-width="1.5" transform="matrix(1.08238 0 0 1.08238 17.18768297526 5.20146845446)"/><path d="m120 116c5.333 16 8.667 30.667 10 44 1.333 14.667-1.333 26.333-8 35-6.667 4.667-10.667 3-12-5-1.333-10-.667-20.667 2-32 1.333-13.333 2.333-24.333 3-33-.667-4.667 1-7.667 5-9" fill="url(#g)" fill-rule="nonzero" stroke-width="1.5" transform="matrix(1.0712206622 -.15502279312 .15502279312 1.0712206622 -.87036719412 25.56148003026)"/><path d="m135 112c6.667 12 11.667 24.667 15 38 3.333 16.667 1.667 29.333-5 38-6.667 4.667-11 3.667-13-3-1.333-8.667-1.333-18.667 0-30 0-13.333-1.333-25-4-35-2-4 .333-6.667 7-8" fill="url(#h)" fill-rule="nonzero" stroke-width="1.5" transform="matrix(1.05520035582 -.24103736696 .24103736696 1.05520035582 -9.03946788712 40.28002638472)"/><path d="m148 105c8 10 13.667 21.667 17 35s2.333 25-3 35c-4.667 6.667-8 7.667-10 3-1.333-6.667-1.333-14.333 0-23 0-13.333-2.333-25.667-7-37-2-5.333-1-9.667 3-13" fill="url(#i)" fill-rule="nonzero" stroke-width="1.5" transform="matrix(1.01676179488 -.37113511344 .37113511344 1.01676179488 -19.64684059422 63.12905952568)"/><ellipse cx="100" cy="70" fill="url(#j)" rx="55" ry="50" stroke-width="2" transform="matrix(1.08238 0 0 1.08238 15.470512 12.298291)"/></g><circle cx="91.237112" cy="75.076331" fill="#ea580c" fill-opacity=".4" r="5.4119" stroke-width="1.08238"/><circle cx="154.015152" cy="71.829191" fill="#ea580c" fill-opacity=".4" r="4.32952" stroke-width="1.08238"/><circle cx="107.472812" cy="107.547731" fill="#ea580c" fill-opacity=".4" r="3.24714" stroke-width="1.08238"/><circle cx="143.191352" cy="104.300591" fill="#ea580c" fill-opacity=".4" r="3.24714" stroke-width="1.08238"/><ellipse cx="100" cy="202" fill="url(#k)" rx="8" ry="5" transform="matrix(2.07828108514 0 0 1.91004026746 -136.1478983655 -164.4210906388)"/><circle cx="92" cy="196" fill="url(#l)" r="3" transform="matrix(1.08238 0 0 1.08238 -38.91832208686 -2.21290490024)"/><circle cx="108" cy="194" fill="url(#m)" r="2.5" transform="matrix(1.08238 0 0 1.08238 -35.79798398624 .07662861902)"/><circle cx="96" cy="188" fill="url(#n)" r="2" transform="matrix(1.08238 0 0 1.08238 -36.17433184176 1.51202469126)"/><circle cx="104" cy="186" fill="url(#o)" r="1.5" transform="matrix(1.08238 0 0 1.08238 -38.5196577205 6.44410671964)"/><path d="m45 58c0-28.667 18.333-45.333 55-50 36.667 4.667 55 21.333 55 50" fill="none" stroke="url(#p)" stroke-linecap="round" stroke-width="10" transform="matrix(1.08238 0 0 1.08238 15.470512 12.298291)"/><ellipse cx="43" cy="68" fill="url(#r)" rx="15" ry="20" stroke="#475569" stroke-width="1.5" transform="matrix(1.08238 0 0 1.08238 15.470512 12.298291)"/><ellipse cx="62.012852" cy="85.900131" fill="#334155" rx="10.8238" ry="15.15332" stroke-width="1.08238"/><ellipse cx="157" cy="68" fill="url(#s)" rx="15" ry="20" stroke="#475569" stroke-width="1.5" transform="matrix(1.08238 0 0 1.08238 15.470512 12.298291)"/><ellipse cx="185.404172" cy="85.900131" fill="#334155" rx="10.8238" ry="15.15332" stroke-width="1.08238"/><ellipse cx="99.896152" cy="88.064891" fill="#fff" rx="12.98856" ry="15.15332" stroke="#c2410c" stroke-width="1.08238"/><ellipse cx="147.520872" cy="88.064891" fill="#fff" rx="12.98856" ry="15.15332" stroke="#c2410c" stroke-width="1.08238"/><circle cx="102.060912" cy="90.229651" fill="#1e293b" r="6.49428" stroke-width="1.08238"/><circle cx="149.685632" cy="90.229651" fill="#1e293b" r="6.49428" stroke-width="1.08238"/><circle cx="100.12033779274" cy="91.9369106216" fill="#fff" r="2.70595" stroke-width="1.08238"/><circle cx="147.39305591056" cy="91.58896658204" fill="#fff" r="2.70595" stroke-width="1.08238"/><path d="m90 92c6.667 5.333 13.333 5.333 20 0" fill="none" stroke="#c2410c" stroke-linecap="round" stroke-width="2.5" transform="matrix(1.08238 0 0 1.08238 15.470512 12.298291)"/><path d="m172 45c4 0 6-2.333 6-7s-2-7-6-7" fill="none" stroke="#f97316" stroke-linecap="round" stroke-width="2" transform="matrix(1.08238 0 0 1.08238 15.470512 12.298291)"/><path d="m176 50c6.667 0 10-4 10-12s-3.333-12-10-12" fill="none" stroke="#f97316" stroke-linecap="round" stroke-width="2" transform="matrix(1.08238 0 0 1.08238 15.470512 12.298291)"/><path d="m180 55c8 0 12-5.667 12-17s-4-17-12-17" fill="none" stroke="#f97316" stroke-linecap="round" stroke-width="2" transform="matrix(1.08238 0 0 1.08238 15.470512 12.298291)"/></svg>

<svg xmlns="http://www.w3.org/2000/svg" viewBox="0 0 200 200">
  <defs>
    <!-- Gradients -->
    <linearGradient id="bodyGrad" x1="0%" y1="0%" x2="100%" y2="100%">
      <stop offset="0%" stop-color="#ff8c42"/>
      <stop offset="50%" stop-color="#f97316"/>
      <stop offset="100%" stop-color="#ea580c"/>
    </linearGradient>
    <linearGradient id="headphoneGrad" x1="0%" y1="0%" x2="0%" y2="100%">
      <stop offset="0%" stop-color="#64748b"/>
      <stop offset="100%" stop-color="#475569"/>
    </linearGradient>
    <linearGradient id="earpadGrad" x1="0%" y1="0%" x2="100%" y2="100%">
      <stop offset="0%" stop-color="#94a3b8"/>
      <stop offset="100%" stop-color="#64748b"/>
    </linearGradient>
    <linearGradient id="inkGrad" x1="0%" y1="0%" x2="0%" y2="100%">
      <stop offset="0%" stop-color="#1e293b"/>
      <stop offset="100%" stop-color="#0f172a"/>
    </linearGradient>
  </defs>

  <!-- Body/Head -->
  <ellipse cx="100" cy="70" rx="55" ry="50" fill="url(#bodyGrad)" stroke="#c2410c" stroke-width="2"/>

  <!-- Body spots -->
  <circle cx="70" cy="58" r="5" fill="#ea580c" opacity="0.4"/>
  <circle cx="128" cy="55" r="4" fill="#ea580c" opacity="0.4"/>
  <circle cx="85" cy="88" r="3" fill="#ea580c" opacity="0.4"/>
  <circle cx="118" cy="85" r="3" fill="#ea580c" opacity="0.4"/>

  <!-- Tentacles - hanging down from body with playful curves -->
  <g fill="url(#bodyGrad)" stroke="#c2410c" stroke-width="1.5">
    <!-- Far left tentacle -->
    <path d="M52 105
             Q40 120 35 140
             Q30 160 38 175
             Q45 185 48 178
             Q50 168 48 155
             Q48 135 55 118
             Q58 110 52 105" />

    <!-- Left tentacle -->
    <path d="M65 112
             Q55 130 50 150
             Q45 175 55 188
             Q65 195 68 185
             Q70 172 68 155
             Q68 135 72 120
             Q75 114 65 112" />

    <!-- Left-center tentacle -->
    <path d="M80 116
             Q72 140 70 160
             Q68 182 78 195
             Q88 202 90 190
             Q92 175 88 158
             Q86 138 85 125
             Q86 118 80 116" />

    <!-- Center-left tentacle -->
    <path d="M92 118
             Q88 145 90 168
             Q92 188 100 198
             Q108 202 108 190
             Q106 172 102 155
             Q98 135 96 125
             Q95 120 92 118" />

    <!-- Center-right tentacle (with ink!) -->
    <path d="M108 118
             Q112 145 110 168
             Q108 188 100 198
             Q92 202 92 190
             Q94 172 98 155
             Q102 135 104 125
             Q105 120 108 118" />

    <!-- Right-center tentacle -->
    <path d="M120 116
             Q128 140 130 160
             Q132 182 122 195
             Q112 202 110 190
             Q108 175 112 158
             Q114 138 115 125
             Q114 118 120 116" />

    <!-- Right tentacle -->
    <path d="M135 112
             Q145 130 150 150
             Q155 175 145 188
             Q135 195 132 185
             Q130 172 132 155
             Q132 135 128 120
             Q125 114 135 112" />

    <!-- Far right tentacle -->
    <path d="M148 105
             Q160 120 165 140
             Q170 160 162 175
             Q155 185 152 178
             Q150 168 152 155
             Q152 135 145 118
             Q142 110 148 105" />
  </g>

  <!-- Ink drops from one tentacle -->
  <g fill="url(#inkGrad)">
    <ellipse cx="100" cy="202" rx="8" ry="5" opacity="0.9"/>
    <circle cx="92" cy="196" r="3" opacity="0.7"/>
    <circle cx="108" cy="194" r="2.5" opacity="0.6"/>
    <circle cx="96" cy="188" r="2" opacity="0.5"/>
    <circle cx="104" cy="186" r="1.5" opacity="0.4"/>
  </g>

  <!-- Headphone band -->
  <path d="M45 58 Q45 15 100 8 Q155 15 155 58"
        fill="none" stroke="url(#headphoneGrad)" stroke-width="10" stroke-linecap="round"/>

  <!-- Left earpad -->
  <ellipse cx="43" cy="68" rx="15" ry="20" fill="url(#earpadGrad)" stroke="#475569" stroke-width="1.5"/>
  <ellipse cx="43" cy="68" rx="10" ry="14" fill="#334155"/>

  <!-- Right earpad -->
  <ellipse cx="157" cy="68" rx="15" ry="20" fill="url(#earpadGrad)" stroke="#475569" stroke-width="1.5"/>
  <ellipse cx="157" cy="68" rx="10" ry="14" fill="#334155"/>

  <!-- Eyes -->
  <ellipse cx="78" cy="70" rx="12" ry="14" fill="white" stroke="#c2410c" stroke-width="1"/>
  <ellipse cx="122" cy="70" rx="12" ry="14" fill="white" stroke="#c2410c" stroke-width="1"/>
  <circle cx="80" cy="72" r="6" fill="#1e293b"/>
  <circle cx="124" cy="72" r="6" fill="#1e293b"/>
  <circle cx="82" cy="70" r="2.5" fill="white"/>
  <circle cx="126" cy="70" r="2.5" fill="white"/>

  <!-- Cute little smile -->
  <path d="M90 92 Q100 100 110 92" stroke="#c2410c" stroke-width="2.5" fill="none" stroke-linecap="round"/>

  <!-- Audio waves -->
  <g stroke="#f97316" stroke-width="2" fill="none" stroke-linecap="round" opacity="0.8">
    <path d="M172 45 Q178 45 178 38 Q178 31 172 31"/>
    <path d="M176 50 Q186 50 186 38 Q186 26 176 26"/>
    <path d="M180 55 Q192 55 192 38 Q192 21 180 21"/>
  </g>
</svg>
